X:1510
T:Marchioness of Huntly, The
T:Aboyne Castle
C:Peter Milne
B:Fiddle Music of Scotland, Jas Hunter
Z:Nigel Gatherer <gatherer@argonet.co.uk>
M:4/4
L:1/8
K:A
C|A,>B,C>F E<CA,>c|d>B d/c/B/A/ B<GE<C|A,>B,C>F E<CA,>d|
(3cde (3dcB c<AA>C|A,>B,C>F E<CA,>c|d>B d/c/B/A/ B<EGA E<CD>d|
(3cde (3dcB c<AA>e|a>e d/c/B/A/ e<Ac>A|d>e d/c/B/A/ B<EG<B|
a>e d/c/B/A/ e>Ac<A|Be|a>e d/c/B/A/ e>Ac>A|
D<F C<E B,>E GEF<A E>CD>d|cd/e/ d/c/B c<A A2|]
